img/settings-active.svg

<?xml version="1.0" encoding="UTF-8" standalone="no"?>
<!-- Created with Inkscape (http://www.inkscape.org/) -->

<svg
   xmlns:dc="http://purl.org/dc/elements/1.1/"
   xmlns:cc="http://creativecommons.org/ns#"
   xmlns:rdf="http://www.w3.org/1999/02/22-rdf-syntax-ns#"
   xmlns:svg="http://www.w3.org/2000/svg"
   xmlns="http://www.w3.org/2000/svg"
   xmlns:sodipodi="http://sodipodi.sourceforge.net/DTD/sodipodi-0.dtd"
   xmlns:inkscape="http://www.inkscape.org/namespaces/inkscape"
   width="48px"
   height="48px"
   id="svg5490"
   sodipodi:version="0.32"
   inkscape:version="0.48.3.1 r9886"
   sodipodi:docname="settings-active.svg"
   version="1.1">
  <defs
     id="defs5492" />
  <sodipodi:namedview
     id="base"
     pagecolor="#ffffff"
     bordercolor="#666666"
     borderopacity="1.0"
     inkscape:pageopacity="0.0"
     inkscape:pageshadow="2"
     inkscape:zoom="4.9497474"
     inkscape:cx="-7.7844488"
     inkscape:cy="19.391161"
     inkscape:current-layer="layer1"
     showgrid="false"
     inkscape:grid-bbox="true"
     inkscape:document-units="px"
     inkscape:window-width="1272"
     inkscape:window-height="965"
     inkscape:window-x="0"
     inkscape:window-y="0"
     inkscape:window-maximized="1" />
  <metadata
     id="metadata5495">
    <rdf:RDF>
      <cc:Work
         rdf:about="">
        <dc:format>image/svg+xml</dc:format>
        <dc:type
           rdf:resource="http://purl.org/dc/dcmitype/StillImage" />
        <dc:title></dc:title>
        <cc:license
           rdf:resource="http://creativecommons.org/licenses/LGPL/2.1/" />
        <dc:date>October 2006</dc:date>
        <dc:creator>
          <cc:Agent>
            <dc:title>Andreas Nilsson</dc:title>
          </cc:Agent>
        </dc:creator>
        <dc:source>http://www.gnome.org</dc:source>
        <dc:subject>
          <rdf:Bag>
            <rdf:li>system</rdf:li>
            <rdf:li>applications</rdf:li>
            <rdf:li>group</rdf:li>
            <rdf:li>category</rdf:li>
            <rdf:li>admin</rdf:li>
            <rdf:li>root</rdf:li>
          </rdf:Bag>
        </dc:subject>
      </cc:Work>
      <cc:License
         rdf:about="http://creativecommons.org/licenses/LGPL/2.1/">
        <cc:permits
           rdf:resource="http://web.resource.org/cc/Reproduction" />
        <cc:permits
           rdf:resource="http://web.resource.org/cc/Distribution" />
        <cc:requires
           rdf:resource="http://web.resource.org/cc/Notice" />
        <cc:permits
           rdf:resource="http://web.resource.org/cc/DerivativeWorks" />
        <cc:requires
           rdf:resource="http://web.resource.org/cc/ShareAlike" />
        <cc:requires
           rdf:resource="http://web.resource.org/cc/SourceCode" />
      </cc:License>
    </rdf:RDF>
  </metadata>
  <g
     id="layer1"
     inkscape:label="Layer 1"
     inkscape:groupmode="layer">
    <path
       style="opacity:1;fill:#ffffff;fill-opacity:1;stroke:none;stroke-width:4;stroke-linecap:round;stroke-linejoin:round;stroke-miterlimit:4;stroke-dasharray:none;stroke-dashoffset:0;stroke-opacity:1"
       d="M 19.585519,1.9999995 L 19.585519,7.8514109 C 18.216608,8.2056432 17.102724,8.7191612 15.893015,9.387815 L 11.806834,5.3016339 L 5.1381865,11.970281 L 9.2570572,16.056463 L 9.2570572,16.089152 C 8.4554991,17.570213 7.8496719,18.792407 7.5245164,20.499418 L 1.9999995,20.499418 L 1.9999995,29.460542 L 8.0802371,29.460542 C 8.3910597,30.402639 8.7916751,31.116323 9.2570572,31.976224 C 9.2616655,31.984741 9.2524346,32.000407 9.2570572,32.008913 L 5.1381865,36.095094 L 11.806834,42.763742 L 15.893015,38.677562 C 17.102724,39.346214 18.216608,39.859733 19.585519,40.213966 L 19.585519,45.999998 L 28.54664,45.999998 L 28.54664,40.213966 C 29.891169,39.866041 30.78487,39.3619 31.976225,38.71025 L 36.127784,42.86181 L 42.796432,36.193163 L 38.644871,32.041603 C 39.125869,31.162235 39.535669,30.426558 39.854382,29.460542 L 45.999998,29.460542 L 45.999998,20.499418 L 40.410102,20.499418 C 40.080154,18.767246 39.464724,17.522638 38.644871,16.023773 L 42.796432,11.872213 L 36.127784,5.2035655 L 31.976225,9.3551255 C 30.78487,8.7034758 29.891169,8.1993339 28.54664,7.8514109 L 28.54664,1.9999995 L 19.585519,1.9999995 z M 23.967309,16.710251 C 28.009296,16.710252 31.289746,19.990705 31.289746,24.032688 C 31.289745,28.074669 28.009296,31.355124 23.967309,31.355124 C 19.925322,31.355124 16.644872,28.07467 16.644872,24.032688 C 16.644872,19.990704 19.925322,16.710251 23.967309,16.710251 z "
       id="path5498"
       sodipodi:nodetypes="cccccccccccsccccccccccccccccccccccccsssc" />
  </g>
</svg>

<?xml version="1.0" encoding="UTF-8" standalone="no"?>
<!-- Created with Inkscape (http://www.inkscape.org/) -->
<svg id="svg5490" xmlns:rdf="http://www.w3.org/1999/02/22-rdf-syntax-ns#" xmlns="http://www.w3.org/2000/svg" height="48px" width="48px" version="1.1" xmlns:cc="http://creativecommons.org/ns#" xmlns:dc="http://purl.org/dc/elements/1.1/">
 <metadata id="metadata5495">
  <rdf:RDF>
   <cc:Work rdf:about="">
    <dc:format>image/svg+xml</dc:format>
    <dc:type rdf:resource="http://purl.org/dc/dcmitype/StillImage"/>
    <dc:title/>
    <cc:license rdf:resource="http://creativecommons.org/licenses/LGPL/2.1/"/>
    <dc:date>October 2006</dc:date>
    <dc:creator>
     <cc:Agent>
      <dc:title>Andreas Nilsson</dc:title>
     </cc:Agent>
    </dc:creator>
    <dc:source>http://www.gnome.org</dc:source>
    <dc:subject>
     <rdf:Bag>
      <rdf:li>system</rdf:li>
      <rdf:li>applications</rdf:li>
      <rdf:li>group</rdf:li>
      <rdf:li>category</rdf:li>
      <rdf:li>admin</rdf:li>
      <rdf:li>root</rdf:li>
     </rdf:Bag>
    </dc:subject>
   </cc:Work>
   <cc:License rdf:about="http://creativecommons.org/licenses/LGPL/2.1/">
    <cc:permits rdf:resource="http://web.resource.org/cc/Reproduction"/>
    <cc:permits rdf:resource="http://web.resource.org/cc/Distribution"/>
    <cc:requires rdf:resource="http://web.resource.org/cc/Notice"/>
    <cc:permits rdf:resource="http://web.resource.org/cc/DerivativeWorks"/>
    <cc:requires rdf:resource="http://web.resource.org/cc/ShareAlike"/>
    <cc:requires rdf:resource="http://web.resource.org/cc/SourceCode"/>
   </cc:License>
  </rdf:RDF>
 </metadata>
 <g id="layer1">
  <path id="path5498" d="m19.586 2v5.8514c-1.369 0.3542-2.483 0.8678-3.693 1.5364l-4.086-4.0862-6.6688 6.6684 4.1189 4.086v0.033c-0.8016 1.481-1.4074 2.703-1.7326 4.41h-5.5245v8.962h6.0802c0.3109 0.942 0.7115 1.655 1.1769 2.515 0.0046 0.009-0.0047 0.024 0 0.033l-4.1189 4.086 6.6688 6.669 4.086-4.086c1.21 0.668 2.324 1.182 3.693 1.536v5.786h8.961v-5.786c1.344-0.348 2.238-0.852 3.429-1.504l4.152 4.152 6.668-6.669-4.151-4.151c0.481-0.88 0.891-1.615 1.209-2.581h6.146v-8.962h-5.59c-0.33-1.732-0.945-2.976-1.765-4.475l4.151-4.152-6.668-6.6684-4.152 4.1515c-1.191-0.6516-2.085-1.1558-3.429-1.5037v-5.8514h-8.961zm4.381 14.71c4.042 0 7.323 3.281 7.323 7.323s-3.281 7.322-7.323 7.322-7.322-3.28-7.322-7.322 3.28-7.323 7.322-7.323z" fill="#fff"/>
 </g>
</svg>
